X: 63
T: The Souters of Selkirk
%R: slip-jig
B: Stewart "A Select Collection of Airs, Jigs, Marches and Reels", ca.1784, p.29 #63
F: http://imslp.org/wiki/A_Select_Collection_of_Airs,_Jigs,_Marches_and_Reels_%28Various%29
Z: 2017 John Chambers <jc:trillian.mit.edu>
M: 9/8
L: 1/16
K: G
|:\
(Bcd2)d2 (efg2)e2 (d2B2)G2 | (Bcd2)d2 (efg2)e2 Tf4A2 |\
(Bcd2)d2 (efg2)e2 (d2B2)G2 | c3de2 d2B2g2 Tf4A2 :|
|:\
g2G2B2 g2(agfe) d2B2G2 | g2d2B2 g2d2B2 a2(fgaf) |\
g2(efge) d2(BcdB) G2(BcdB) | c2e2c2 d2B2g2 Tf4A2 :|

%%sep 1 1 500
%%sep 1 1 500

